lib/logo_tmp/nrk-logo-nrk-sapmi-title-below.svg

<svg width="48" height="41" viewBox="0 0 48 41" fill="none" xmlns="http://www.w3.org/2000/svg">
<path d="M6.10352e-05 17.9927V5.99377H3.93725V17.9927H6.10352e-05ZM9.29387 7.90346L11.5581 17.9927H7.24923L4.54555 5.99377H6.96224C7.51641 5.98657 8.05412 6.18192 8.47456 6.54307C8.89568 6.88906 9.18501 7.36937 9.29387 7.90346ZM12.1496 17.9927V5.99377H16.0868V17.9927H12.1496ZM19.0605 10.5568C18.6363 10.5609 18.2188 10.4499 17.8526 10.2356C17.4913 10.0268 17.1912 9.72663 16.9823 9.36527C16.7678 8.99901 16.6568 8.58144 16.661 8.15699C16.6562 7.73514 16.7673 7.32006 16.9823 6.9571C17.1934 6.59967 17.4932 6.30277 17.8526 6.0952C18.2189 5.88118 18.6363 5.77019 19.0605 5.77406C19.4823 5.76952 19.8972 5.8806 20.2603 6.0952C20.6161 6.30459 20.9127 6.60124 21.1221 6.9571C21.3369 7.32016 21.448 7.73517 21.4434 8.15699C21.4473 8.5814 21.3363 8.9989 21.1221 9.36527C20.9149 9.72505 20.618 10.025 20.2603 10.2356C19.8972 10.4507 19.4819 10.5618 19.06 10.5568H19.0605ZM22.0517 17.9927V5.99377H25.9892V17.9927H22.0517ZM30.9738 12.5509C30.9849 12.5626 31.0693 12.7006 31.2272 12.9649C31.3851 13.2293 31.5907 13.5674 31.844 13.979C32.0975 14.3904 32.3649 14.8269 32.6464 15.2887C32.9278 15.7504 33.1927 16.187 33.4409 16.5985C33.6882 17.0099 33.9698 17.4746 34.2858 17.9927H29.9599C29.6893 17.5533 29.4442 17.1561 29.2245 16.8012C29.0049 16.4463 28.7714 16.0633 28.5239 15.652C28.2759 15.2412 28.0307 14.8412 27.7883 14.4521C27.5459 14.0631 27.3376 13.7223 27.1633 13.4297C26.9883 13.137 26.8671 12.9398 26.7997 12.8382C26.6326 12.5861 26.5337 12.295 26.5127 11.9932C26.5295 11.7036 26.6227 11.4237 26.7828 11.1818C26.8504 11.0691 26.9743 10.8691 27.1546 10.5818C27.3348 10.2945 27.5461 9.95373 27.7883 9.5594C28.0305 9.16507 28.2757 8.76228 28.5239 8.35105C28.7721 7.93982 29.0056 7.55391 29.2245 7.19338C29.4446 6.83323 29.6897 6.43326 29.9599 5.99349H34.2858L30.9397 11.4522C30.8361 11.6142 30.7778 11.801 30.7707 11.9932C30.7818 12.195 30.8523 12.389 30.9732 12.5509H30.9738Z" fill="white"/>
<path d="M7.29072 29.5099C7.04696 29.2583 6.76416 29.0489 6.45358 28.8901C6.12799 28.723 5.78912 28.5839 5.4406 28.4742C5.08305 28.361 4.71472 28.2647 4.33559 28.1853C4.04501 28.1175 3.77436 28.0497 3.52359 27.9818C3.29311 27.9215 3.06881 27.839 2.85383 27.7353C2.66904 27.6466 2.49731 27.5324 2.34349 27.3958C2.19859 27.2663 2.08648 27.1033 2.01669 26.9206C1.93941 26.7058 1.90253 26.4783 1.90789 26.2497C1.90412 26.013 1.94091 25.7775 2.01669 25.5536C2.08541 25.3561 2.2003 25.1784 2.35153 25.0357C2.50832 24.8902 2.68634 24.77 2.87924 24.6795C3.09972 24.5776 3.33372 24.5089 3.57379 24.4757C3.85948 24.4344 4.14779 24.4146 4.43635 24.4163C4.69909 24.4168 4.9616 24.4309 5.22294 24.4585C5.48743 24.4865 5.75023 24.529 6.01014 24.5861C6.26247 24.6416 6.51125 24.7125 6.75518 24.7983C6.98357 24.8779 7.20486 24.9773 7.41655 25.0952L7.65098 23.6013C7.41291 23.4754 7.16335 23.373 6.90588 23.2957C6.64338 23.2167 6.37833 23.1486 6.11063 23.0917C5.83953 23.0349 5.56564 22.9925 5.29018 22.9646C5.01113 22.9363 4.72656 22.9222 4.43635 22.9222C3.84429 22.9157 3.25373 22.984 2.67834 23.1256C2.18842 23.2456 1.72548 23.4589 1.3141 23.7541C0.934921 24.0299 0.629807 24.3975 0.426678 24.8235C0.209943 25.3023 0.104035 25.8249 0.116974 26.3516C0.107387 26.7591 0.172663 27.1649 0.3095 27.5483C0.429498 27.8697 0.614787 28.1619 0.853356 28.406C1.08952 28.6448 1.36063 28.8452 1.65705 29.0002C1.97143 29.1645 2.29923 29.301 2.63678 29.408C2.98838 29.5212 3.34831 29.6174 3.71666 29.6967C4.01803 29.7644 4.29707 29.8351 4.5538 29.9089C4.79254 29.9756 5.02498 30.0636 5.24835 30.172C5.44051 30.2641 5.61833 30.3842 5.77606 30.5286C5.92556 30.6711 6.04259 30.8449 6.11901 31.038C6.20792 31.2706 6.25066 31.5186 6.24484 31.768C6.24925 32.0332 6.20965 32.2972 6.12766 32.5491C6.05419 32.7669 5.9405 32.9685 5.79275 33.1433C5.64425 33.3156 5.46174 33.4543 5.257 33.5505C5.02571 33.6586 4.78048 33.733 4.52866 33.7715C4.2213 33.8193 3.91069 33.8421 3.59975 33.8394C3.29746 33.8387 2.9955 33.8188 2.69564 33.78C2.38311 33.7404 2.07046 33.6865 1.75774 33.6184C1.4498 33.5519 1.14533 33.4697 0.845521 33.3723C0.549359 33.2766 0.267513 33.1776 0 33.0754L0.217665 34.7563C0.503074 34.8643 0.793681 34.9577 1.08833 35.0362C1.35574 35.1073 1.62669 35.164 1.90006 35.2059C2.16236 35.2454 2.42477 35.2765 2.68726 35.2993C2.94975 35.3221 3.21472 35.3335 3.48223 35.3333C4.08163 35.337 4.67967 35.2744 5.26566 35.1465C5.7843 35.0362 6.27817 34.8289 6.722 34.5353C7.13629 34.2573 7.47126 33.8738 7.69335 33.4232C7.93778 32.8894 8.05525 32.305 8.0363 31.7168C8.04548 31.2786 7.98046 30.8421 7.84405 30.4262C7.727 30.0838 7.53824 29.7712 7.29072 29.5099Z" fill="white"/>
<path d="M17.3113 34.0771C17.1889 34.0885 17.0656 34.0697 16.9518 34.0224C16.8381 33.9751 16.7373 33.9007 16.658 33.8055C16.5028 33.5334 16.4383 33.2178 16.4741 32.9056L16.5073 29.408C16.511 29.0413 16.466 28.6758 16.3734 28.3214C16.2922 28.0104 16.1561 27.7169 15.9716 27.4552C15.7853 27.1994 15.5488 26.9855 15.277 26.827C14.961 26.6453 14.6194 26.5137 14.2641 26.4367C13.8296 26.3416 13.3859 26.296 12.9414 26.3009C12.5887 26.3006 12.2363 26.3232 11.8863 26.3685C11.5558 26.4109 11.2286 26.4762 10.9069 26.5641C10.6085 26.646 10.315 26.7453 10.0278 26.8612L9.82694 28.3044C10.106 28.2028 10.3714 28.1179 10.6223 28.0497C10.8731 27.9815 11.1161 27.9252 11.3505 27.8799C11.5803 27.8355 11.8124 27.8044 12.0457 27.7868C12.2741 27.7698 12.5001 27.7612 12.7235 27.761C13.0649 27.7537 13.4057 27.7937 13.7364 27.8799C13.9778 27.9412 14.1998 28.064 14.3813 28.2367C14.5429 28.4046 14.6583 28.6124 14.7161 28.8395C14.7876 29.1194 14.8214 29.4078 14.8166 29.6969L14.8146 30.1228L12.858 30.2572C12.1886 30.2761 11.5292 30.4259 10.9158 30.6983C10.4568 30.9021 10.0604 31.2276 9.76863 31.6407C9.52108 32.0083 9.38973 32.4435 9.39195 32.8886C9.38883 33.3063 9.48964 33.7182 9.68517 34.0859C9.8899 34.4635 10.198 34.7729 10.5723 34.977C11.0291 35.2179 11.5395 35.3349 12.054 35.3166C12.5361 35.3278 13.016 35.2472 13.4688 35.0791C13.8603 34.9238 14.2185 34.6932 14.5236 34.4C14.6396 34.2875 14.7496 34.1687 14.8531 34.0443C14.8856 34.2202 14.947 34.3893 15.0346 34.5446C15.1837 34.8045 15.413 35.0074 15.6872 35.1219C15.9904 35.2454 16.3149 35.306 16.6416 35.3001C16.7423 35.3001 16.8397 35.297 16.9345 35.2917C17.0277 35.286 17.1202 35.2717 17.2108 35.2489C17.3001 35.2263 17.381 35.2068 17.4536 35.1895C17.5192 35.1748 17.5836 35.1549 17.6461 35.1301L17.8303 33.9928C17.738 34.0249 17.6427 34.0476 17.546 34.0607C17.4682 34.071 17.3898 34.0765 17.3113 34.0771ZM14.5233 33.3131C14.3418 33.4586 14.1453 33.584 13.9373 33.6869C13.73 33.789 13.5106 33.8632 13.2844 33.9076C13.0499 33.9533 12.8116 33.976 12.5728 33.9752C12.3 33.9833 12.0287 33.9312 11.7778 33.8224C11.5734 33.7327 11.4009 33.5817 11.2836 33.3897C11.1676 33.1862 11.1097 32.954 11.1162 32.7191C11.1 32.4359 11.1766 32.1552 11.3341 31.9208C11.5163 31.7051 11.7632 31.556 12.037 31.4964C12.4648 31.3944 12.9037 31.3488 13.343 31.3608H14.8091L14.8018 33.0459C14.7166 33.1427 14.6234 33.2323 14.5233 33.3131Z" fill="white"/>
<path d="M15.5865 22.26H13.7786L12.3554 25.2992H13.6616L15.5865 22.26Z" fill="white"/>
<path d="M25.8582 26.8357C25.2573 26.4626 24.5616 26.2767 23.8574 26.3009C23.4395 26.303 23.0234 26.3571 22.6185 26.4619C22.1808 26.5749 21.759 26.7433 21.3628 26.963C21.2841 27.0063 21.2062 27.0544 21.1281 27.1031V26.3178L19.4206 26.5895V38.712H21.1281V34.9107C21.1395 34.9155 21.1501 34.9209 21.1619 34.926C21.4712 35.0561 21.7942 35.1501 22.1246 35.2062C22.5147 35.2714 22.9096 35.3027 23.3049 35.2995C24.0587 35.3127 24.802 35.119 25.4561 34.739C26.0986 34.3529 26.6208 33.791 26.9629 33.1178C27.3581 32.315 27.5507 31.4254 27.5235 30.5285C27.5393 29.7703 27.3939 29.0175 27.0969 28.3213C26.835 27.7147 26.4045 27.1985 25.8582 26.8357ZM25.4145 32.5151C25.2134 32.9659 24.8763 33.3404 24.4518 33.5844C23.98 33.8351 23.4523 33.958 22.9199 33.9413C22.6648 33.9414 22.41 33.9215 22.158 33.8815C21.8936 33.8389 21.6332 33.7737 21.3795 33.6866C21.2992 33.6583 21.2121 33.626 21.1283 33.5949V28.2367C21.1507 28.2262 21.1735 28.2127 21.1956 28.2025C21.4411 28.0893 21.67 27.993 21.8821 27.9136C22.0829 27.8375 22.2903 27.7806 22.5016 27.7438C22.6895 27.711 22.8798 27.6939 23.0705 27.6928C23.5868 27.6754 24.0991 27.7893 24.5609 28.0239C24.9645 28.2468 25.2806 28.6033 25.4564 29.0339C25.6693 29.5849 25.7691 30.1742 25.7497 30.7657C25.7674 31.3668 25.653 31.9644 25.4145 32.5151Z" fill="white"/>
<path d="M41.169 26.6575C40.7125 26.4061 40.198 26.283 39.6789 26.3009C39.2283 26.2997 38.7808 26.3772 38.3562 26.5301C37.9249 26.6867 37.5187 26.9069 37.1507 27.1835C36.9422 27.3403 36.7438 27.5104 36.5566 27.6929C36.3851 27.2678 36.0825 26.9104 35.6941 26.6741C35.2319 26.4217 34.7118 26.2988 34.1872 26.3179C33.7395 26.318 33.295 26.3954 32.8729 26.5468C32.4397 26.7015 32.0309 26.9189 31.6591 27.1923C31.5388 27.28 31.4221 27.3753 31.3075 27.4752V26.319L29.5997 26.5737V35.1479H31.3075V28.6878C31.5086 28.5541 31.7184 28.4343 31.9353 28.329C32.2009 28.2015 32.4786 28.1019 32.7641 28.0316C33.0271 27.9659 33.2969 27.9318 33.5678 27.93C33.8165 27.9223 34.0642 27.9656 34.296 28.0573C34.4878 28.1397 34.6573 28.2678 34.79 28.4306C34.9354 28.62 35.0357 28.8409 35.083 29.0761C35.1483 29.3799 35.1792 29.6902 35.1751 30.0011V35.1459H36.8828V29.6445C36.884 29.3198 36.8624 28.9953 36.8181 28.6737C37.0117 28.5449 37.2122 28.427 37.4186 28.3205C37.6796 28.1871 37.9549 28.0845 38.239 28.0149C38.5075 27.9481 38.7829 27.9137 39.0594 27.9127C39.3053 27.9068 39.55 27.9501 39.7794 28.0404C39.9746 28.1209 40.1471 28.2493 40.2816 28.4139C40.4272 28.603 40.5276 28.8239 40.5746 29.0591C40.6399 29.363 40.6708 29.6734 40.6667 29.9844V35.1459H42.3744V29.6279C42.396 28.9857 42.2937 28.3455 42.0731 27.7432C41.8993 27.2893 41.5811 26.9073 41.169 26.6575Z" fill="white"/>
<path d="M44.9026 35.1468H46.6104V26.3179L44.9026 26.5726V35.1468Z" fill="white"/>
<path d="M46.7778 23.1851C46.6784 23.0109 46.5373 22.8649 46.3676 22.7606C46.1938 22.653 45.9937 22.5971 45.79 22.5996C45.5838 22.5978 45.3811 22.6535 45.204 22.7606C45.0294 22.8642 44.8827 23.0101 44.777 23.1851C44.6708 23.3614 44.6157 23.5645 44.618 23.7711C44.6163 23.9802 44.6713 24.1858 44.777 24.3653C44.8793 24.5431 45.0267 24.6897 45.204 24.7898C45.3828 24.8919 45.5849 24.9446 45.79 24.9426C45.9926 24.9453 46.1921 24.8925 46.3676 24.7898C46.54 24.6889 46.6818 24.5421 46.7778 24.3653C46.8784 24.184 46.9304 23.9791 46.9285 23.7711C46.931 23.5656 46.8789 23.3632 46.7778 23.1851Z" fill="white"/>
</svg>

<svg xmlns="http://www.w3.org/2000/svg" viewBox="0 0 48 41"><path fill="#fff" d="M0 17.993v-12h3.937v12H0Zm9.294-10.09 2.264 10.09H7.25l-2.703-12h2.416a2.276 2.276 0 0 1 1.513.55c.42.346.71.826.819 1.36Zm2.856 10.09v-12h3.937v12H12.15Zm6.91-7.436a2.382 2.382 0 0 1-2.4-2.4 2.303 2.303 0 0 1 .322-1.2 2.412 2.412 0 0 1 3.278-.862c.356.21.653.506.862.862.215.363.326.778.321 1.2a2.4 2.4 0 0 1-1.183 2.079 2.302 2.302 0 0 1-1.2.32Zm2.992 7.436v-12h3.937v12h-3.937Zm8.922-5.442c.01.012.095.15.253.414s.364.602.617 1.014a320.187 320.187 0 0 1 1.597 2.62c.247.41.529.876.845 1.394H29.96c-.27-.44-.516-.837-.736-1.192-.22-.355-.453-.738-.7-1.149-.248-.41-.493-.81-.736-1.2-.242-.389-.45-.73-.625-1.022a18.04 18.04 0 0 0-.363-.592 1.75 1.75 0 0 1-.287-.845c.016-.29.11-.57.27-.811.067-.113.191-.313.372-.6a182.106 182.106 0 0 0 1.37-2.23c.247-.412.48-.798.7-1.159l.735-1.2h4.326l-3.346 5.46a1.078 1.078 0 0 0-.17.54c.012.202.082.396.203.558ZM7.29 29.51a3.184 3.184 0 0 0-.836-.62 6.478 6.478 0 0 0-1.013-.416c-.358-.113-.726-.21-1.105-.289a23.87 23.87 0 0 1-.812-.203 3.693 3.693 0 0 1-.67-.247 2.206 2.206 0 0 1-.51-.34 1.222 1.222 0 0 1-.327-.474 1.854 1.854 0 0 1-.11-.671 2.069 2.069 0 0 1 .11-.696c.068-.198.183-.376.335-.518.156-.146.334-.266.527-.357.22-.101.455-.17.695-.203a5.79 5.79 0 0 1 .862-.06 7.627 7.627 0 0 1 1.574.17c.252.056.501.127.745.212.229.08.45.18.662.297l.234-1.494a4.141 4.141 0 0 0-.745-.305 9.902 9.902 0 0 0-.795-.204 7.867 7.867 0 0 0-.82-.127 8.458 8.458 0 0 0-.855-.043 7.033 7.033 0 0 0-1.758.204c-.49.12-.953.333-1.364.628-.38.276-.684.643-.887 1.07a3.498 3.498 0 0 0-.31 1.528c-.01.407.056.813.193 1.196.12.322.305.614.543.858.237.239.508.44.804.594.314.165.642.301.98.408.351.113.711.21 1.08.289.301.067.58.138.837.212.239.067.471.155.694.263.193.092.37.212.528.357.15.142.267.316.343.509.089.233.132.48.126.73.004.265-.035.53-.117.781-.074.218-.188.42-.335.594a1.613 1.613 0 0 1-.536.407 2.675 2.675 0 0 1-.728.222c-.308.047-.618.07-.93.067-.302 0-.604-.02-.903-.059-.313-.04-.626-.093-.938-.162a9.32 9.32 0 0 1-.912-.246A17.128 17.128 0 0 1 0 33.075l.218 1.681c.285.108.576.202.87.28.268.071.539.128.812.17.262.04.525.07.787.093.263.023.528.035.795.034.6.004 1.198-.059 1.784-.186a4.237 4.237 0 0 0 1.456-.612c.414-.278.75-.661.971-1.112a3.805 3.805 0 0 0 .343-1.706 3.88 3.88 0 0 0-.192-1.29 2.515 2.515 0 0 0-.553-.917ZM17.311 34.077a.754.754 0 0 1-.653-.271 1.478 1.478 0 0 1-.184-.9l.033-3.498a4.134 4.134 0 0 0-.134-1.087 2.677 2.677 0 0 0-.401-.866 2.282 2.282 0 0 0-.695-.628 3.533 3.533 0 0 0-1.013-.39 5.883 5.883 0 0 0-1.323-.136c-.352 0-.705.022-1.055.068-.33.042-.657.107-.98.195a8.025 8.025 0 0 0-.878.297l-.201 1.443a10.005 10.005 0 0 1 1.524-.424c.23-.044.461-.076.695-.093.228-.017.454-.026.678-.026.34-.007.682.033 1.012.119.242.061.464.184.645.357.162.168.277.375.335.603.072.28.105.568.1.857l-.001.426-1.957.134a5.142 5.142 0 0 0-1.942.441c-.46.204-.856.53-1.147.943a2.215 2.215 0 0 0-.377 1.248c-.003.417.098.83.293 1.197.205.378.513.687.887.891.457.24.968.358 1.482.34a3.81 3.81 0 0 0 1.415-.238c.391-.155.75-.386 1.055-.679.116-.112.226-.231.33-.356.032.176.093.345.18.5.15.26.379.463.653.578.303.123.628.184.955.178.1 0 .198-.003.293-.008a1.51 1.51 0 0 0 .276-.043l.243-.06c.065-.014.13-.034.192-.059l.184-1.137a1.464 1.464 0 0 1-.284.068 1.9 1.9 0 0 1-.235.016Zm-2.788-.764a3.22 3.22 0 0 1-.586.374 2.62 2.62 0 0 1-.653.22 3.656 3.656 0 0 1-.711.068 1.86 1.86 0 0 1-.795-.153 1.096 1.096 0 0 1-.494-.432 1.283 1.283 0 0 1-.168-.67c-.016-.284.06-.565.218-.8.182-.215.43-.364.703-.424a5.037 5.037 0 0 1 1.306-.135h1.466l-.007 1.685a2.275 2.275 0 0 1-.279.267ZM15.586 22.26H13.78l-1.424 3.04h1.307l1.924-3.04ZM25.858 26.836a3.56 3.56 0 0 0-2-.535 5.045 5.045 0 0 0-1.24.16 5.344 5.344 0 0 0-1.49.642v-.785l-1.707.271v12.123h1.707v-3.801l.034.015c.31.13.632.224.963.28.39.065.785.097 1.18.093a4.137 4.137 0 0 0 2.151-.56 4.008 4.008 0 0 0 1.507-1.621 5.487 5.487 0 0 0 .56-2.59 5.343 5.343 0 0 0-.426-2.207 3.4 3.4 0 0 0-1.239-1.485Zm-.444 5.68c-.2.45-.538.824-.962 1.068-.472.251-1 .374-1.532.357a4.7 4.7 0 0 1-1.792-.346v-5.358c.023-.01.046-.024.068-.034.245-.114.474-.21.686-.29a3.389 3.389 0 0 1 1.188-.22 3.062 3.062 0 0 1 1.49.33c.405.224.72.58.896 1.01.213.552.313 1.141.294 1.733a4.1 4.1 0 0 1-.335 1.75ZM41.169 26.657a2.882 2.882 0 0 0-1.49-.356 3.873 3.873 0 0 0-1.323.23 4.645 4.645 0 0 0-1.205.652 6.123 6.123 0 0 0-.594.51 2.12 2.12 0 0 0-.863-1.019 2.921 2.921 0 0 0-1.507-.356c-.447 0-.892.077-1.314.229a4.74 4.74 0 0 0-1.565.928V26.32l-1.708.255v8.574h1.707v-6.46a5.37 5.37 0 0 1 .628-.359 4.28 4.28 0 0 1 .83-.297c.262-.066.532-.1.803-.102.248-.008.496.036.728.127a1.3 1.3 0 0 1 .494.374c.145.189.246.41.293.645.065.304.096.614.092.925v5.145h1.708v-5.502c.001-.324-.02-.649-.065-.97.194-.13.394-.247.6-.354.262-.133.537-.236.821-.305a3.45 3.45 0 0 1 .82-.102c.246-.006.491.037.72.127.196.08.368.21.503.374.145.189.246.41.293.645.065.304.096.614.092.925v5.162h1.707v-5.518a4.993 4.993 0 0 0-.3-1.885 2.18 2.18 0 0 0-.905-1.085ZM44.903 35.147h1.707v-8.83l-1.707.256v8.574ZM46.778 23.185a1.19 1.19 0 0 0-.41-.424 1.072 1.072 0 0 0-.578-.161 1.113 1.113 0 0 0-.586.16c-.175.104-.321.25-.427.425-.106.176-.161.38-.159.586-.002.21.053.415.159.594a1.159 1.159 0 0 0 1.013.577 1.114 1.114 0 0 0 .988-.577c.1-.181.152-.386.15-.594a1.159 1.159 0 0 0-.15-.586Z"/></svg>
